X: 746
T: Mengjun shang qianxian
%%abc-version 2.0
%%abcx-abcm2ps-target-version 5.9.1 (29 Sep 2008)
%%abc-creator hum2abc beta
%%abcx-conversion-date 2013/10/02 07:52:30
%%abc-edited-by Helmut Schaffrath
%%humdrum-veritas 635640998
%%humdrum-veritas-data 2986829474
%%continueall 1
%%barnumbers 0
L: 1/8
M: 2/4
K: F
F> D F C [I:setbarnb 1]| 
c> dc2 | 
f> d c A | 
G> FG2 | 
G G/ A/c2 | 
f f/ e/ d c | 
c A G D | 
C4 | 
c> d F G | 
A> GA2 | 
G/ A/ G/ F/ F C | 
D4 | 
c> d c d | 
f> f d c | 
c d c F | 
A2G/ F/ D | 
C4 |]  



